app/assets/images/payment_icons/alipaypaynlversion.svg

<svg xmlns="http://www.w3.org/2000/svg" width="38" height="24" viewBox="0 0 38 24" fill="none" aria-labelledby="pi-alipaypaynlversion" role="img"><title id="pi-alipaypaynlversion">Alipay (PAY. version)</title><rect width="38" height="24" fill="#008ED7"/><path d="M12.837 18.74C9.124 18.74 8.026 15.79 9.861 14.175C10.474 13.63 11.593 13.363 12.189 13.304C14.395 13.084 16.437 13.932 18.847 15.119C17.153 17.347 14.996 18.739 12.837 18.739M26.04 15.342C25.085 15.02 23.804 14.526 22.376 14.006C23.2741 12.4158 23.9446 10.7075 24.368 8.93103H19.663V7.22003H25.427V6.26603H19.663V3.41803H17.311C16.898 3.41803 16.898 3.82803 16.898 3.82803V6.26803H11.068V7.22103H16.898V8.93103H12.085V9.88403H21.42C21.0904 11.0333 20.6396 12.1442 20.075 13.198C17.046 12.19 13.815 11.373 11.784 11.876C10.485 12.199 9.649 12.775 9.157 13.378C6.902 16.145 8.52 20.348 13.282 20.348C16.098 20.348 18.811 18.765 20.913 16.156C24.049 17.676 30.258 20.286 30.258 20.286V16.566C30.258 16.566 29.478 16.503 26.04 15.342" fill="white"/></svg>

<svg xmlns="http://www.w3.org/2000/svg" width="38" height="24" fill="none" aria-labelledby="pi-alipaypaynlversion" role="img" viewBox="0 0 38 24"><title id="pi-alipaypaynlversion">Alipay (PAY. version)</title><path fill="#008ED7" d="M0 0h38v24H0z"/><path fill="#fff" d="M12.837 18.74c-3.713 0-4.811-2.95-2.976-4.565.613-.545 1.732-.812 2.328-.871 2.206-.22 4.248.628 6.658 1.815-1.694 2.228-3.851 3.62-6.01 3.62m13.203-3.397c-.955-.322-2.236-.816-3.664-1.336a19.5 19.5 0 0 0 1.992-5.075h-4.705V7.22h5.764v-.954h-5.764V3.418h-2.352c-.413 0-.413.41-.413.41v2.44h-5.83v.953h5.83v1.71h-4.813v.953h9.335c-.33 1.15-.78 2.26-1.345 3.314-3.029-1.008-6.26-1.825-8.291-1.322-1.299.323-2.135.899-2.627 1.502-2.255 2.767-.637 6.97 4.125 6.97 2.816 0 5.529-1.583 7.631-4.192 3.136 1.52 9.345 4.13 9.345 4.13v-3.72s-.78-.063-4.218-1.224"/></svg>
